X: 15521
T: Glenside, The
R: polka
M: 2/4
K: Edorian
|:BB/B/ BA/A/|FA DA|BB/B/ BA/A/|B/c/d ed|
BB/B/ BA/A/|FA DE|F/E/D dF|E2 E2:|
|:Be/e/ ef/f/|ed eA|Be/e/ ef/f/|ed Bc|
dd/e/ dB|AF DE|F/E/D dF|E2 E2:|

